packages/crayons-icon/icons/dropdown.svg

<?xml version="1.0" encoding="UTF-8"?>
<svg width="14px" height="14px" viewBox="0 0 14 14" version="1.1" xmlns="http://www.w3.org/2000/svg" xmlns:xlink="http://www.w3.org/1999/xlink">
    <!-- Generator: Sketch 52.6 (67491) - http://www.bohemiancoding.com/sketch -->
    <title>icon/dropdown</title>
    <desc>Created with Sketch.</desc>
    <g id="Icons-✅" stroke="none" stroke-width="1" fill="none" fill-rule="evenodd">
        <g id="Icons" transform="translate(-819.000000, -2125.000000)" fill="currentColor">
            <g id="icon/dropdown" transform="translate(819.000000, 2125.000000)">
                <g id="dropdown">
                    <path d="M9.47,4.52 C9.71897425,4.52220597 9.94803761,4.6564966 10.0715683,4.87267527 C10.1950989,5.08885394 10.1945018,5.35437915 10.07,5.57 L7.61,9.84 C7.48196028,10.0549748 7.25021659,10.186682 7,10.186682 C6.74978341,10.186682 6.51803972,10.0549748 6.39,9.84 L3.93,5.57 C3.80549822,5.35437915 3.80490105,5.08885394 3.92843172,4.87267527 C4.05196239,4.6564966 4.28102575,4.52220597 4.53,4.52 L9.47,4.52 Z M7,8.09 L8.25,5.92 L5.75,5.92 L7,8.09 Z M11.6,8.8817842e-16 C12.9232072,0.0054791892 13.9945208,1.0767928 14,2.4 L14,11.6 C13.9945208,12.9232072 12.9232072,13.9945208 11.6,14 L2.4,14 C1.0767928,13.9945208 0.0054791892,12.9232072 8.8817842e-16,11.6 L8.8817842e-16,2.4 C0.0054791892,1.0767928 1.0767928,0.0054791892 2.4,8.8817842e-16 L11.6,8.8817842e-16 Z M12.6,11.6 L12.6,2.4 C12.6,1.84771525 12.1522847,1.4 11.6,1.4 L2.4,1.4 C1.84771525,1.4 1.4,1.84771525 1.4,2.4 L1.4,11.6 C1.4,12.1522847 1.84771525,12.6 2.4,12.6 L11.6,12.6 C12.1522847,12.6 12.6,12.1522847 12.6,11.6 Z" id="Combined-Shape"></path>
                </g>
            </g>
        </g>
    </g>
</svg>

<svg viewBox="0 0 14 14"><path d="M9.47 4.52a.7.7 0 0 1 .6 1.05L7.61 9.84a.71.71 0 0 1-1.22 0L3.93 5.57a.7.7 0 0 1 .6-1.05h4.94zM7 8.09l1.25-2.17h-2.5L7 8.09zM11.6 0A2.41 2.41 0 0 1 14 2.4v9.2a2.41 2.41 0 0 1-2.4 2.4H2.4A2.41 2.41 0 0 1 0 11.6V2.4A2.41 2.41 0 0 1 2.4 0h9.2zm1 11.6V2.4a1 1 0 0 0-1-1H2.4a1 1 0 0 0-1 1v9.2a1 1 0 0 0 1 1h9.2a1 1 0 0 0 1-1z" fill="currentColor" fill-rule="evenodd"/></svg>
